X: 17316
T: Hick's
R: jig
M: 6/8
K: Dminor
DEF|EDC DFE
|:~D3 DzG|AGF GFG|ADD DEF|A,CG FEC|
~D3 DEF|AGF GFG|Adc AGF|1 EDC DEF:|2 EDC D2d||
|:dcA d2e|~f3 edc|dcA d2e|fed g^ga|
dcA d2e|~f3 edc|dcA cAe|1 dcA cdf:|2 dcA GEC||

